showcase/img-motivator.svg

<svg clip-rule="evenodd" fill-rule="evenodd" stroke-linejoin="round" stroke-miterlimit="2" viewBox="0 0 667 417" xmlns="http://www.w3.org/2000/svg" xmlns:xlink="http://www.w3.org/1999/xlink"><clipPath id="a"><path clip-rule="evenodd" d="m210 0h160v100h-160z"/></clipPath><g transform="matrix(4.16667 0 0 4.16667 -875 0)"><path d="m210 0h160v100h-160z" fill="#fff"/><g clip-path="url(#a)" fill-rule="nonzero"><path d="m-140.487 390.542-81.71-515.519 1629.287-152.037c-116.17 258.79-400.13 397.507-686.447 347.52-447.79-78.18-714.148 151.971-861.13 320.036z" fill="#ffe299" transform="matrix(.129163 0 0 .129163 214.511 17.2731)"/><path d="m-156.487 361.765-81.71-515.52 1629.287-152.037c-116.17 258.791-400.133 397.508-686.447 347.52-447.79-78.18-714.148 151.971-861.13 320.037z" fill="#8eb5f4" transform="matrix(.129163 0 0 .129163 212.511 15.2731)"/><g transform="matrix(.316412 0 0 .316412 106.939 -24.918)"><path d="m455.244 225.762 11.036 23.932 11.036-23.932h10.106v40.238h-7.378v-30.566l-11.408 26.164h-4.774l-11.78-27.032v31.434h-7.316v-40.238zm55.553 9.3c2.026 0 3.927.331 5.704.992 1.778.62 3.307 1.591 4.588 2.914 2.852 2.893 4.278 6.903 4.278 12.028 0 5.043-1.426 9.011-4.278 11.904-2.562 2.645-5.993 3.968-10.292 3.968-4.298 0-7.77-1.323-10.416-3.968-2.852-2.852-4.278-6.82-4.278-11.904 0-5.167 1.426-9.176 4.278-12.028 2.604-2.604 6.076-3.906 10.416-3.906zm7.254 15.872c0-3.183-.62-5.559-1.86-7.13-1.24-1.612-2.976-2.418-5.208-2.418-2.19 0-3.988.806-5.394 2.418-1.405 1.571-2.108 3.947-2.108 7.13s.62 5.58 1.86 7.192c1.282 1.571 3.018 2.356 5.208 2.356 2.191 0 3.989-.785 5.394-2.356 1.406-1.612 2.108-4.009 2.108-7.192zm33.01 14.322c-2.728 1.075-4.878 1.612-6.448 1.612-1.571 0-2.956-.186-4.154-.558-1.158-.372-2.191-.93-3.1-1.674-1.902-1.695-2.852-4.03-2.852-7.006v-16.864h-4.216v-4.898h4.216v-7.936h7.316v7.936h8.184v4.898h-8.184v16.616c0 2.48 1.178 3.72 3.534 3.72 1.198 0 2.748-.331 4.65-.992zm8.093-29.45h7.316v30.194h-7.316zm-.868-9.672c0-1.323.392-2.356 1.178-3.1.785-.785 1.901-1.178 3.348-1.178 1.405 0 2.5.393 3.286 1.178.826.744 1.24 1.777 1.24 3.1s-.414 2.377-1.24 3.162c-.786.744-1.881 1.116-3.286 1.116-1.447 0-2.563-.372-3.348-1.116-.786-.785-1.178-1.839-1.178-3.162zm24.001 9.734 6.882 22.878 6.944-22.878h8.432l-11.222 30.132h-8.246l-11.222-30.132zm38.661 12.524c2.397 0 5.166.393 8.308 1.178v-2.976c0-2.108-.434-3.658-1.302-4.65-.827-1.033-2.212-1.55-4.154-1.55-1.902 0-3.369.393-4.402 1.178-1.034.744-1.55 1.819-1.55 3.224h-7.998c0-3.431 1.198-5.911 3.596-7.44 2.438-1.529 5.828-2.294 10.168-2.294 6.2 0 10.209 2.17 12.028 6.51.62 1.488.93 3.245.93 5.27v19.158h-6.386l-.558-4.03c-1.943 3.265-4.919 4.898-8.928 4.898-3.886 0-6.903-.951-9.052-2.852-1.984-1.819-2.976-4.113-2.976-6.882 0-2.811 1.095-4.96 3.286-6.448 2.19-1.529 5.187-2.294 8.99-2.294zm8.308 5.828c-2.439-.661-4.712-.992-6.82-.992-3.968 0-5.952 1.323-5.952 3.968 0 1.116.454 2.087 1.364 2.914.909.785 2.356 1.178 4.34 1.178 2.025 0 3.678-.661 4.96-1.984 1.322-1.364 2.025-3.059 2.108-5.084zm34.967 11.036c-2.728 1.075-4.878 1.612-6.448 1.612-1.571 0-2.956-.186-4.154-.558-1.158-.372-2.191-.93-3.1-1.674-1.902-1.695-2.852-4.03-2.852-7.006v-16.864h-4.216v-4.898h4.216v-7.936h7.316v7.936h8.184v4.898h-8.184v16.616c0 2.48 1.178 3.72 3.534 3.72 1.198 0 2.748-.331 4.65-.992zm19.315-30.194c2.025 0 3.926.331 5.704.992 1.777.62 3.306 1.591 4.588 2.914 2.852 2.893 4.278 6.903 4.278 12.028 0 5.043-1.426 9.011-4.278 11.904-2.563 2.645-5.994 3.968-10.292 3.968-4.299 0-7.771-1.323-10.416-3.968-2.852-2.852-4.278-6.82-4.278-11.904 0-5.167 1.426-9.176 4.278-12.028 2.604-2.604 6.076-3.906 10.416-3.906zm7.254 15.872c0-3.183-.62-5.559-1.86-7.13-1.24-1.612-2.976-2.418-5.208-2.418-2.191 0-3.989.806-5.394 2.418-1.406 1.571-2.108 3.947-2.108 7.13s.62 5.58 1.86 7.192c1.281 1.571 3.017 2.356 5.208 2.356 2.19 0 3.988-.785 5.394-2.356 1.405-1.612 2.108-4.009 2.108-7.192zm23.337-9.114c1.819-4.34 4.547-6.51 8.184-6.51.703 0 1.591.145 2.666.434l-.124 7.316c-1.157-.248-2.294-.372-3.41-.372-4.877 0-7.316 3.369-7.316 10.106v13.206h-7.316v-30.194h7.316z" fill="#6e9de8"/><path d="m556.055 224.664c-.416 2.916 1.577 6.318 4.48 6.998 2.488.583 3.726.296 4.481 0 1.49-.583 3.984-2.333 3.984-5.832s-2.484-6.415-3.48-7.581c-1.89-2.213-3.984-4.666-5.478-5.249.166.389.797 3.966 0 5.832-.996 2.333-3.654 3.499-3.987 5.832z" fill="#ffcf24"/><path d="m559.03 228.139c-.224 1.535.849 3.325 2.412 3.683 1.34.307 2.006.156 2.413 0 .802-.307 2.145-1.228 2.145-3.069 0-1.842-1.338-3.377-1.874-3.991-1.017-1.164-2.145-2.455-2.949-2.762.089.205.429 2.087 0 3.069-.537 1.228-1.968 1.842-2.147 3.07z" fill="#ffe299"/></g></g></g></svg>

<?xml version="1.0" encoding="UTF-8" standalone="no"?>
<!DOCTYPE svg PUBLIC "-//W3C//DTD SVG 1.1//EN" "http://www.w3.org/Graphics/SVG/1.1/DTD/svg11.dtd">
<svg width="100%" height="100%" viewBox="0 0 667 417" version="1.1" xmlns="http://www.w3.org/2000/svg" xmlns:xlink="http://www.w3.org/1999/xlink" xml:space="preserve" xmlns:serif="http://www.serif.com/" style="fill-rule:evenodd;clip-rule:evenodd;stroke-linejoin:round;stroke-miterlimit:2;">
    <g transform="matrix(4.16667,0,0,4.16667,-875,0)">
        <rect id="Artboard2" x="210" y="0" width="160" height="100" style="fill:white;"/>
        <clipPath id="_clip1">
            <rect id="Artboard21" serif:id="Artboard2" x="210" y="0" width="160" height="100"/>
        </clipPath>
        <g clip-path="url(#_clip1)">
            <g transform="matrix(0.129163,0,0,0.129163,214.511,17.2731)">
                <path d="M-140.487,390.542L-222.197,-124.977L1407.09,-277.014C1290.92,-18.224 1006.96,120.493 720.643,70.506C272.853,-7.674 6.495,222.477 -140.487,390.542Z" style="fill:rgb(255,226,153);fill-rule:nonzero;"/>
            </g>
            <g transform="matrix(0.129163,0,0,0.129163,212.511,15.2731)">
                <path d="M-156.487,361.765L-238.197,-153.755L1391.09,-305.792C1274.92,-47.001 990.957,91.716 704.643,41.728C256.853,-36.452 -9.505,193.699 -156.487,361.765Z" style="fill:rgb(142,181,244);fill-rule:nonzero;"/>
            </g>
            <g transform="matrix(0.316412,0,0,0.316412,106.939,-24.918)">
                <path d="M455.244,225.762L466.28,249.694L477.316,225.762L487.422,225.762L487.422,266L480.044,266L480.044,235.434L468.636,261.598L463.862,261.598L452.082,234.566L452.082,266L444.766,266L444.766,225.762L455.244,225.762ZM510.797,235.062C512.823,235.062 514.724,235.393 516.501,236.054C518.279,236.674 519.808,237.645 521.089,238.968C523.941,241.861 525.367,245.871 525.367,250.996C525.367,256.039 523.941,260.007 521.089,262.9C518.527,265.545 515.096,266.868 510.797,266.868C506.499,266.868 503.027,265.545 500.381,262.9C497.529,260.048 496.103,256.08 496.103,250.996C496.103,245.829 497.529,241.82 500.381,238.968C502.985,236.364 506.457,235.062 510.797,235.062ZM518.051,250.934C518.051,247.751 517.431,245.375 516.191,243.804C514.951,242.192 513.215,241.386 510.983,241.386C508.793,241.386 506.995,242.192 505.589,243.804C504.184,245.375 503.481,247.751 503.481,250.934C503.481,254.117 504.101,256.514 505.341,258.126C506.623,259.697 508.359,260.482 510.549,260.482C512.74,260.482 514.538,259.697 515.943,258.126C517.349,256.514 518.051,254.117 518.051,250.934ZM551.061,265.256C548.333,266.331 546.183,266.868 544.613,266.868C543.042,266.868 541.657,266.682 540.459,266.31C539.301,265.938 538.268,265.38 537.359,264.636C535.457,262.941 534.507,260.606 534.507,257.63L534.507,240.766L530.291,240.766L530.291,235.868L534.507,235.868L534.507,227.932L541.823,227.932L541.823,235.868L550.007,235.868L550.007,240.766L541.823,240.766L541.823,257.382C541.823,259.862 543.001,261.102 545.357,261.102C546.555,261.102 548.105,260.771 550.007,260.11L551.061,265.256ZM559.154,235.806L566.47,235.806L566.47,266L559.154,266L559.154,235.806ZM558.286,226.134C558.286,224.811 558.678,223.778 559.464,223.034C560.249,222.249 561.365,221.856 562.812,221.856C564.217,221.856 565.312,222.249 566.098,223.034C566.924,223.778 567.338,224.811 567.338,226.134C567.338,227.457 566.924,228.511 566.098,229.296C565.312,230.04 564.217,230.412 562.812,230.412C561.365,230.412 560.249,230.04 559.464,229.296C558.678,228.511 558.286,227.457 558.286,226.134ZM582.287,235.868L589.169,258.746L596.113,235.868L604.545,235.868L593.323,266L585.077,266L573.855,235.868L582.287,235.868ZM620.948,248.392C623.345,248.392 626.114,248.785 629.256,249.57L629.256,246.594C629.256,244.486 628.822,242.936 627.954,241.944C627.127,240.911 625.742,240.394 623.8,240.394C621.898,240.394 620.431,240.787 619.398,241.572C618.364,242.316 617.848,243.391 617.848,244.796L609.85,244.796C609.85,241.365 611.048,238.885 613.446,237.356C615.884,235.827 619.274,235.062 623.614,235.062C629.814,235.062 633.823,237.232 635.642,241.572C636.262,243.06 636.572,244.817 636.572,246.842L636.572,266L630.186,266L629.628,261.97C627.685,265.235 624.709,266.868 620.7,266.868C616.814,266.868 613.797,265.917 611.648,264.016C609.664,262.197 608.672,259.903 608.672,257.134C608.672,254.323 609.767,252.174 611.958,250.686C614.148,249.157 617.145,248.392 620.948,248.392ZM629.256,254.22C626.817,253.559 624.544,253.228 622.436,253.228C618.468,253.228 616.484,254.551 616.484,257.196C616.484,258.312 616.938,259.283 617.848,260.11C618.757,260.895 620.204,261.288 622.188,261.288C624.213,261.288 625.866,260.627 627.148,259.304C628.47,257.94 629.173,256.245 629.256,254.22ZM664.223,265.256C661.495,266.331 659.345,266.868 657.775,266.868C656.204,266.868 654.819,266.682 653.621,266.31C652.463,265.938 651.43,265.38 650.521,264.636C648.619,262.941 647.669,260.606 647.669,257.63L647.669,240.766L643.453,240.766L643.453,235.868L647.669,235.868L647.669,227.932L654.985,227.932L654.985,235.868L663.169,235.868L663.169,240.766L654.985,240.766L654.985,257.382C654.985,259.862 656.163,261.102 658.519,261.102C659.717,261.102 661.267,260.771 663.169,260.11L664.223,265.256ZM683.538,235.062C685.563,235.062 687.464,235.393 689.242,236.054C691.019,236.674 692.548,237.645 693.83,238.968C696.682,241.861 698.108,245.871 698.108,250.996C698.108,256.039 696.682,260.007 693.83,262.9C691.267,265.545 687.836,266.868 683.538,266.868C679.239,266.868 675.767,265.545 673.122,262.9C670.27,260.048 668.844,256.08 668.844,250.996C668.844,245.829 670.27,241.82 673.122,238.968C675.726,236.364 679.198,235.062 683.538,235.062ZM690.792,250.934C690.792,247.751 690.172,245.375 688.932,243.804C687.692,242.192 685.956,241.386 683.724,241.386C681.533,241.386 679.735,242.192 678.33,243.804C676.924,245.375 676.222,247.751 676.222,250.934C676.222,254.117 676.842,256.514 678.082,258.126C679.363,259.697 681.099,260.482 683.29,260.482C685.48,260.482 687.278,259.697 688.684,258.126C690.089,256.514 690.792,254.117 690.792,250.934ZM714.129,241.82C715.948,237.48 718.676,235.31 722.313,235.31C723.016,235.31 723.904,235.455 724.979,235.744L724.855,243.06C723.698,242.812 722.561,242.688 721.445,242.688C716.568,242.688 714.129,246.057 714.129,252.794L714.129,266L706.813,266L706.813,235.806L714.129,235.806L714.129,241.82Z" style="fill:rgb(110,157,232);fill-rule:nonzero;"/>
                <path d="M556.055,224.664C555.639,227.58 557.632,230.982 560.535,231.662C563.023,232.245 564.261,231.958 565.016,231.662C566.506,231.079 569,229.329 569,225.83C569,222.331 566.516,219.415 565.52,218.249C563.63,216.036 561.536,213.583 560.042,213C560.208,213.389 560.839,216.966 560.042,218.832C559.046,221.165 556.388,222.331 556.055,224.664Z" style="fill:rgb(255,207,36);fill-rule:nonzero;"/>
                <path d="M559.03,228.139C558.806,229.674 559.879,231.464 561.442,231.822C562.782,232.129 563.448,231.978 563.855,231.822C564.657,231.515 566,230.594 566,228.753C566,226.911 564.662,225.376 564.126,224.762C563.109,223.598 561.981,222.307 561.177,222C561.266,222.205 561.606,224.087 561.177,225.069C560.64,226.297 559.209,226.911 559.03,228.139Z" style="fill:rgb(255,226,153);fill-rule:nonzero;"/>
            </g>
        </g>
    </g>
</svg>
